svg/moon-filled.svg

<svg xmlns="http://www.w3.org/2000/svg" width="24" height="24" viewBox="0 0 24 24">
	<g fill="currentColor">
		<path d="M15.22 6.03l2.53 -1.94l-3.19 -0.09l-1.06 -3l-1.06 3l-3.19 0.09l2.53 1.94l-0.91 3.06l2.63 -1.81l2.63 1.81l-0.91 -3.06Z" fill-opacity="0">
			<animate attributeName="fill-opacity" values="0;1" begin="0.7s" dur="0.4s" fill="freeze" />
		</path>
		<path d="M19.61 12.25l1.64 -1.25l-2.06 -0.05l-0.69 -1.95l-0.69 1.95l-2.06 0.05l1.64 1.25l-0.59 1.98l1.7 -1.17l1.7 1.17l-0.59 -1.98Z" fill-opacity="0">
			<animate attributeName="fill-opacity" values="0;1" begin="1.1s" dur="0.4s" fill="freeze" />
		</path>
	</g>
	<g fill="none" stroke="currentColor" stroke-width="2" stroke-linecap="round" stroke-linejoin="round">
		<path d="M7 6c0 6.08 4.92 11 11 11c0.53 0 1.05 -0.04 1.56 -0.11c-1.61 2.47 -4.39 4.11 -7.56 4.11c-4.97 0 -9 -4.03 -9 -9c0 -3.17 1.64 -5.95 4.11 -7.56c-0.07 0.51 -0.11 1.03 -0.11 1.56Z" fill="currentColor" fill-opacity="0" stroke-dasharray="56" stroke-dashoffset="56">
			<animate attributeName="fill-opacity" values="0;1" begin="1.5s" dur="0.5s" fill="freeze" />
			<animate attributeName="stroke-dashoffset" values="56;0" dur="0.6s" fill="freeze" />
		</path>
	</g>
</svg>

<svg xmlns="http://www.w3.org/2000/svg" width="24" height="24" viewBox="0 0 24 24">
	<g fill="currentColor" fill-opacity="0">
		<path d="M15.22 6.03L17.75 4.09L14.56 4L13.5 1L12.44 4L9.25 4.09L11.78 6.03L10.87 9.09L13.5 7.28L16.13 9.09L15.22 6.03Z">
			<animate attributeName="fill-opacity" values="0;1" begin="0.7s" dur="0.4s" fill="freeze" />
		</path>
		<path d="M19.61 12.25L21.25 11L19.19 10.95L18.5 9L17.81 10.95L15.75 11L17.39 12.25L16.8 14.23L18.5 13.06L20.2 14.23L19.61 12.25Z">
			<animate attributeName="fill-opacity" values="0;1" begin="1.1s" dur="0.4s" fill="freeze" />
		</path>
	</g>
	<g fill="currentColor" fill-opacity="0" stroke="currentColor" stroke-linecap="round" stroke-linejoin="round" stroke-width="2">
		<path d="M7 6 C7 12.08 11.92 17 18 17 C18.53 17 19.05 16.96 19.56 16.89 C17.95 19.36 15.17 21 12 21 C7.03 21 3 16.97 3 12 C3 8.83 4.64 6.05 7.11 4.44 C7.04 4.95 7 5.47 7 6 Z" stroke-dashoffset="56" stroke-dasharray="56">
			<animate attributeName="stroke-dashoffset" values="56;0" dur="0.6s" fill="freeze" />
			<animate attributeName="fill-opacity" values="0;1" begin="1.5s" dur="0.5s" fill="freeze" />
		</path>
	</g>
</svg>
